X:1
T:Peer Gynt Suite No. 1 Op. 46 no. 1Morning Mood Edvard Grieg 
%%score 1 2 3 4
L:1/8
M:6/8
K:C
V:1 treble-8 nm="Guitar"
V:2 treble-8 nm="Guitar"
V:3 treble-8 nm="Guitar"
V:4 treble-8 nm="Guitar"
V:1
 ccc ccc |:!mf! ged cde | ged cd/e/d/e/ | geg aea |1 ged c2 z :|2 B^G^F E2 z || b^g^f efg | %7
 b^g^f ef/g/f/g/ | b^gb c'gc' | b^g^f e2 z | B^G^F EFG | B^G^F EF/G/F/G/ | B^GB cAc | dBA G2 z | %14
 d'ba ga/b/a/b/ | dBA GA/B/A/B/ |!f! d'bg dBG | d'bg dBG | ged cde | ged cd/e/d/e/ | geg aea | %21
 afe d2 z | afe def | afe de/f/e/f/ | afa bfb | bgb c'gc' | c'ac' d'ad' | %27
 e'/b/^g/e/g/b/ b/g/e/B/e/g/ | ^g/e/B/^G/B/e/ e/B/G/E/G/B/ | EeA DdA | CcA DdA | %31
 e/B/^G/E/G/B/ C2 D | e/B/^G/E/G/B/ C2 D | e/B/^G/E/G/B/ e/B/G/E/G/B/ | d/B/G/D/G/B/ d3 | GED CDE | %36
 g6 | a6 | c'6 | c'6 |] %40
V:2
 z6 |:!p! g3 e3 | g3 e3 | g3 a3 |1 g3 e3 :|2 b^g^f e2 z || b3 e3 | b3 e3 | b3 c'3 | b3 b^g^f | %10
 b^g^f e3 | b^g^f e3 | b3 c'3 | afe B2 z | d3 G3 | d3 G3 | d3 D3 | d3 D3 |!f! GED CDE | %19
 GED CD/E/D/E/ |!mf! g3 a3 | c3 A3 | c3 A3 | c3 A3 | c3 G3 | G3 g3 | c3 d3 | eB^g dBE | B^gB BeB | %29
 ^GBe FAc | AEC DFA | E^GB cAF | E^GB cAF | E^GB eBG | GBd dBG | ged cde | g6 | a6 | c'6 | c'6 |] %40
V:3
 z6 |:!pp! c/g/c/g/c/g/ c/e/c/e/c/e/ | c/g/c/g/c/g/ c/e/c/e/c/e/ | c/g/c/g/c/g/ A/c/e/c/e/c/ |1 %4
 c/g/c/g/c/g/ c/g/c/g/c/g/ :|2 E/^G/B/G/B/G/ E/G/B/G/B/G/ || E/^G/B/G/B/G/ E/G/B/G/B/G/ | %7
 E/^G/B/G/B/G/ E/G/B/G/B/G/ | E/^G/B/G/B/G/ c/e/c/e/c/e/ | B,/E/^G/E/G/E/ G/B/G/B/G/B/ | %10
 B,/E/^G/E/G/E/ E/G/B/G/B/G/ | B,/E/^G/E/G/E/ B,/E/G/E/G/E/ | E/^G/B/G/B/G/ c/e/a/e/c/e/ | %13
 d/A/d/A/d/A/ d/g/d/g/d/g/ | d/A/d/A/d/A/ d/g/d/g/d/g/ | d/A/d/A/d/A/ d/g/d/g/d/g/ | %16
 DB,G, DD/E/D/E/ | DB,G, DD/E/D/E/ |!p! c/g/c/g/c/g/ c/e/c/e/c/e/ | c/g/c/g/c/g/ c/e/c/e/c/e/ | %20
 c/g/c/g/c/g/ A/c/e/c/e/c/ | A/c/f/c/f/c/ d/f/d/f/d/f/ | A/c/A/c/A/c/ d/f/d/f/d/f/ | %23
 A/c/A/c/A/c/ d/f/d/f/d/f/ |!mp! A/c/f/c/f/c/ B/d/f/d/f/d/ | B/d/B/d/B/d/ c/g/c/g/c/g/ | %26
 A/c/A/c/A/c/ d/f/d/f/d/f/ | e/B/^G/E/G/B/ B/G/E/B,/E/G/ | ^G/E/B,/^G,/B,/E/ E/B,/G,/E,/G,/B,/ | %29
 B/e/B/e/B/e/ d/f/d/f/d/f/ | e/c/e/c/e/c/ d/e/d/e/d/e/ | e/B/^G/E/G/B/ C2 D | e/B/^G/E/G/B/ C2 D | %33
 e/B/^G/E/G/B/ e/B/G/E/G/B/ | d/B/G/D/G/B/ d3 | c/g/c/g/c/g/ c/e/c/e/c/e/ | %36
 G/B/d/B/d/B/ G/B/d/B/d/B/ | A/c/e/c/e/c/ A/c/e/c/A/E/ |!<(! c/e/c/e/c/e/ c/e/c/e/c/e/!<)! | %39
!f! cGE C3 |] %40
V:4
 z6 |:!mf! G,3 C2- C/E,/ | G,3 C2- C/E,/ | G,3 A,2 C |1 G,3 GED :|2 B,3 z ^F,^E, || B,3 E,2 ^G, | %7
 B,3 E,2 ^F, | B,3 C2 C | B,3 E,^F,^E, | B,3 E,2 ^G, | B,3 E,2 ^F, | B,3 A,3 | D3 G,3 | %14
 D3 G,2- G,/A,/ | D3 G,2 A, | D3 D3 | D3 D3 |!f! G,3 C3 | G,3 C2- C/E,/ | G,3 A,2 C | A,3 D3 | %22
 A,3 D2- D/E,/ | A,3 D2 E, | A,3 B,2 B, | B,3 C2 C | C3 DA,D |!mf! E3 B,3 | E,3 ^G,3 | E,2 A, D3 | %30
 C2 A, D3 | E,3 C2 D | E,3 C2 D | E,3 ^G,3 | G,3 D3 | G,3 C3 | G,B,C CB,G, | A,CE ECA, | CEG ceg | %39
 C6 |] %40

